!!!Genre:	Skotshne
!!!Mode:	Altered Dorian
!!!Listening/dance:	listening
!!!:	*G:
!!!One_Mode:	no
**kern
*I"P1
*clefG2
*k[b-]
*g:dor
*M2/4
*>A
(16.cc#XLL
32eeJJk
=1!|:
[4dd)
8ddL_
16.ddL]
(32eeJJk
=2
4.cc#Xt)
(16b-LL
16ddJJ)
=3
(16ddLL
16cc#X)
(16cc#
16b-JJ)
(16b-LL
16aJ
8gJ)
=4
8g'L
8b-'
8dd'
8gg'J
=5
(8qgg/
[4dd)
8ddL_
16.ddL]
(32eeJJk
=6
4.cc#X)
16b-LL
16ddJJ
=7
(16ddLL
16cc#X)
(16cc#
16b-JJ)
(16b-LL
16a)
(16a
16gJJ)
*>A1
=8
4g
16r
16dLL
16g
16b-JJ
*>A2
=:|!
4.g
=9||
*k[f#]
*G:
*>B
*>bM
*G:
!LO:TX:a:i:t=G-major
8g
=10
4.b
(16aLL
16gJJ)
=11
(16ddLL
16cc)
(16cc
16bJJ)
8bL
(16aL
16gJJ)
=12
8bL
16aL
16gJJ
24ddLL
24ee
24ddJ
8ccJ
=13
8bL
8gg
8dd
8ggJ
=14
4.b
(16bLL
16ddJJ)
=15
(16ddLL
16cc)
(16cc
16bJJ)
8bL
16aL
16gJJ
=16
(16bLL
16a)
(16a
16gJJ)
24bLL
24cc
24bJ
8aJ
=17
4g
8r
(16dLL
16gJJ
=18
4.b)
8dd
=19
(16ddLL
16cc)
(16cc
16bJJ)
4dd
=20
(16bLL
16ccJJ)
4b
(16gLL
16ddJJ)
=21
(16ddLL
16cc)
(16cc
16bJJ)
8bL
16aL
16gJJ
=22
4.b
(16bLL
16ddJJ)
=23
(16ddLL
16cc)
(16cc
16bJJ)
4b
=24
24aLL
24b
24aJ
8gJ
(8bL
8aJ
=
4g)
8r
=25||
*k[b-]
*>eM
*g:dor
*>C
!LO:TX:a:i:t=G-dorian
(16cc#XLL
16eeJJ
=26
2dd)
=27
2gg
=28
4bb-
4gg
=29
4dd
24cc#LL
24dd
24cc#J
8b-J
=30
(8qb-/
8ddL)
8ddJ
(24cc#LL
24dd)
24cc#J
8b-J
=31
8ddL
8ddJ
24cc#LL
24dd
24cc#J
8b-J
=32
8ddL
8ddJ
24cc#LL
24dd
24cc#
16b-
16aJJ
=33
8g
4dd
8dd
=34
8qcc#/
4dd
8qdd/
8cc#L
8b-J
=35
(8qb-/
4.dd)
(16b-LL
16ddJJ)
=36
(16ddLL
16cc#)
(16cc#
16b-JJ)
(16b-LL
16a)
(16a
16gJJ)
=
4g
8r
=37||
*k[f#]
*>bM
*G:
*>D
!LO:TX:a:i:t=G-major
16dLL
16gJJ
=38
4.b
(16aLL
16gJJ)
=39
(16ddLL
16cc)
16cc
16bJJ
4b
=40
24aLL
24b
24aJ
8gJ
8bL
8aJ
=41
8gL
8ddJ
24ccLL
24dd
24ccJ
8bJ
=42
4.b
16aLL
16gJJ
=43
8ddL
8ccJ
(16bLL
16ccJ)
8bJ
=44
8aL
8gJ
8bL
8aJ
=45
4.g
(16dLL
16gJJ
=46
4.b)
8dd
=47
8ddL
8ccJ
4b
=48
24aLL
24b
24aJ
8gJ
16bLL
16cc
16b
16aJJ
=49
8gL
8ddJ
(16.cc#XLL
32eeJk
8ddJ)
=50
4.b
(16bLL
16ddJJ
=51
8ddL)
8ccJ
4b
=52
(24aLL
24b
24aJ
8gJ)
8bL
8aJ
=
4.g
=53||
*k[b-]
*>eM
*g:dor
*>E
!LO:TX:a:i:t=G-dorian
(16.cc#XLL
32eeJJk
=54
2dd)
=55
2gg
=56
(8.ggL
16ff#XJk)
(8.ggL
16ff#Jk)
=57
16ggLL
16r
16gg
16r
16gg
16r
16ggJJ
16r
=58
4gg
(16ggLL
16ffnJ)
8ffJ
=59
4ee
(16eeLL
16ddJ)
8ddJ
=60
(16cc#XLL
16dd
16ee
16ddJJ)
8cc#L
8b-J
=61
(8qb-/
4dd)
8r
8dd
=62
(16ggLL
16aa
16bb-
16aaJJ
16ggLL
16ff
16ee
16ddJJ)
=63
(16cc#XLL
16dd
16ee
16ddJJ
16cc#LL
16b-
16a
16gJJ)
=64
16b-LL
16a
16ccn
16b-JJ
16aLL
16g
16f#
16dJJ
=65
4.g
8g
=66
4gg
16ffnLL
16gg
16ff
16eeJJ
=67
(16ddLL
16eeJ
8cc#XJ)
4dd
=68
16cc#XLL
16dd
16ee
16ddJJ
8cc#L
24b-L
24a
24gJJ
=69
4dd
8r
8gg
=70
16ggLL
16aa
16bb-
16aaJJ
16ggLL
16ff
16ee
16ddJJ
=71
16cc#XLL
16dd
16ee
16ddJJ
8cc#L
16gL
16aJJ
=72
8.b-L
16aJk
16ccnLL
16b-
16a
16dJJ
=
4.g
=73||
*k[f#]
*G:
*>F
*>bM
*G:
!LO:TX:a:i:t=G-major
8d
=74
4g
8bL
8ddJ
=75
4.cc
8b
=76
(16bLL
16a)
(16a
16gJJ)
8ddL
8ccJ
=77
(16bLL
16ccJJ
4b)
(16aLL
16gJJ)
=78
4b
8ddL
8ccJ
=79
4b
(16qqa/LL
16qqb/JJ
8.aL)
16gJk
=80
4a
8bL
8aJ
=81
4g
8r
16dLL
16gJJ
=82
4b
(16bLL
16ddJ)
8ccJ
=83
(16qqcc/LL
16qqdd/JJ
4.b)
8a
=84
8aL
8g
8dd
8ccJ
=85
(16bLL
16ddJJ)
4dd
8cc
=86
4b
8ddL
8ccJ
=87
4.b
8a
=88
4g
24bLL
24cc
24bJ
8aJ
=
4g
8r
=89||
*k[b-]
*>eM
*g:dor
*>G
!LO:TX:a:i:t=G-dorian
16.cc#XLL
32eeJJk
=90
4dd
8cc#XL
8b-J
=91
8dd
4dd
8cc#X
=92
(16ddLL
16cc#X)
(16cc#
16b-JJ)
(16b-LL
16a)
(16a
16gJJ)
=93
8gL
8ddJ
(8qff#X/
8ggL)
(8qff#/
8ggJ)
=94
4dd
24cc#LL
24dd
24cc#J
8b-J
=95
(16.cc#LL
32eeJJk
4dd)
(16b-LL
16ddJJ)
=96
(16ddLL
16cc#)
(16cc#
16b-JJ)
(16b-LL
16a)
(16a
16gJJ)
=97
4g
8r
==
*-
